Adwaita++-Light/panel/24/copy-sync8.svg

<svg height="24" width="24" xmlns="http://www.w3.org/2000/svg">
  <path d="m20.634766 3.0253906-5.617188 6.8183594 1.982422 1.15625 4-7.6484375zm-14.634766 4.4746094-4 3.5 4.375-.625.9492188 5.625h3.3867192l-3.210938-8zm7 2.529297-3 .970703 1 3 4-3zm3 1.570312-5.144531 4.400391h8.34375l-1.199219-3zm-11.1640625 5.400391c-.4633 0-.8359375.372938-.8359375.835938v1.328124c0 .463001.3726375.835938.8359375.835938h13.1640625 1.164062c.463001 0 .835938-.374891.835938-.837891v-1.326171c0-.463001-.372938-.835938-.835938-.835938h-1.164062z" fill="#444"/>
</svg>

<svg xmlns="http://www.w3.org/2000/svg" width="24" height="24" x="0" y="0" version="1.1" xml:space="preserve">
 <defs>
  <style id="current-color-scheme" type="text/css">
   .ColorScheme-Text { color:#444444; } .ColorScheme-Highlight { color:#4285f4; }
  </style>
 </defs>
 <path style="fill:currentColor" class="ColorScheme-Text" d="M 20.634766 3.0253906 L 15.017578 9.84375 L 17 11 L 21 3.3515625 L 20.634766 3.0253906 z M 6 7.5 L 2 11 L 6.375 10.375 L 7.3242188 16 L 10.710938 16 L 7.5 8 L 6 7.5 z M 13 10.029297 L 10 11 L 11 14 L 15 11 L 13 10.029297 z M 16 11.599609 L 10.855469 16 L 19.199219 16 L 18 13 L 16 11.599609 z M 4.8359375 17 C 4.3726375 17 4 17.372938 4 17.835938 L 4 19.164062 C 4 19.627063 4.3726375 20 4.8359375 20 L 18 20 L 19.164062 20 C 19.627063 20 20 19.625109 20 19.162109 L 20 17.835938 C 20 17.372937 19.627062 17 19.164062 17 L 18 17 L 4.8359375 17 z"/>
</svg>
